X:1802
T:En Flandres (F. Paris)
O:england
C:F. Paris: Rue de l'oiseau
M:2/4
L:1/16
K:C
c|:cBcd c3d|dcde d3e|edef ~f2dc|Bcde e2dc|cBcd c3d|
dcde d3e|edef ~f2dc|1 BcdB cGEG:|2 BcdB c3c||
|:cdef G3A|ABcd G3A|ABcd e3f|1 fedc eddc:|2 fedc ~B2AB||


